X: 59
T:Missa Une mousse de Biscaye / Sanctus
N: Derived from Jos0502d-Missa_Une_mousse_de_Biscaye-Sanctus.krn
C: Josquin des Prez
%%abc-version 2.0
%%abcx-abcm2ps-target-version 5.9.1 (29 Sep 2008)
%%abc-creator hum2abc beta
%%abcx-conversion-date 2019/02/12 16:15:40
%%abc-edited-by Jesse Rodin
%%abc-edited-by Jesse Rodin; Victoria Chang 2012/02/03
%%abcx-initial-encoding-date 2012/02/03/
%%humdrum-veritas 269575823
%%humdrum-veritas-data 1422784567
%%linebreak <none>
%%barnumbers 0
L: 1/4
M: 3/1
Q: 1/2=120
%%staves [1 2 3 4]
V: 1 clef=treble
V: 2 clef=treble-8
V: 3 clef=treble-8
V: 4 clef=bass
K: F
[V:1] F12- | 
[V:2] F3GA2B4A2 | 
[V:3] z12 | 
[V:4] z12 | 
[V:1] F8G4 | 
[V:2] F2B3AGFE4 | 
[V:3] z12 | 
[V:4] z12 | 
[V:1] A12 | 
[V:2] F2f4edc2d2 | 
[V:3] z12 | 
[V:4] z12 | 
[V:1] B8A4 | 
[V:2] G2g3fedc2d2 | 
[V:3] z12 | 
[V:4] z12 | 
[V:1] G2A3GF2E2D2- | 
[V:2] B2c2d4c2B2 | 
[V:3] z12 | 
[V:4] z12 | 
[V:1] DEFGA2G4^F2 | 
[V:2] d4c2B2A4 | 
[V:3] z12 | 
[V:4] D,3E,F,2G,2D,4 | 
[V:1] G4z4z2A2- | 
[V:2] z2G3AB2A2c2- | 
[V:3] z12 | 
[V:4] _E,3D,C,2B,,2C,4 | 
[V:1] A2A2A4B4- | 
[V:2] cBAGF4GABc | 
[V:3] z12 | 
[V:4] A,,2D,3C,B,,A,,G,,2G,2- | 
[V:1] B2AGA4F2G2 | 
[V:2] d2e2c2d4B2 | 
[V:3] z12 | 
[V:4] G,2E,2F,4D,2_E,2 | 
[V:1] A4F2G2E2F2 | 
[V:2] c2d4B2c2A2 | 
[V:3] z12 | 
[V:4] C,2F,2D,2_E,2C,2D,2- | 
[V:1] D4G2F2A4 | 
[V:2] B2G4A3Bc2 | 
[V:3] z12 | 
[V:4] D,2B,,2_E,2D,2F,3=E, | 
[V:1] B2c2A2d4B2 | 
[V:2] d2e2f4g4 | 
[V:3] z12 | 
[V:4] D,2C,2D,4G,,2G,2 | 
[V:1] cBAGF2B4A2 | 
[V:2] e2f3ed2c4 | 
[V:3] z12 | 
[V:4] A,G,F,E,D,2B,,2F,4 | 
[V:1] B2A4G4^F2 | 
[V:2] B2c2d2B2A4 | 
[V:3] z12 | 
[V:4] G,2F,2D,2G,2D,4 | 
[V:1] G4F2G2E2F2 | 
[V:2] G2B2A2G2c2d2 | 
[V:3] z12 | 
[V:4] G,,4D,2E,2C,2F,2 | 
[V:1] G2A3GF2E4 | 
[V:2] e2f3ed4^c2 | 
[V:3] z12 | 
[V:4] E,2D,3E,F,G,A,4 | 
[V:1] D8z2A2 | 
[V:2] d4B2d2c4 | 
[V:3] F12 | 
[V:4] z2D,4C,B,,A,,4 | 
[V:1] B6AGB2G2 | 
[V:2] B6d4cB | 
[V:3] G8G4 | 
[V:4] G,,8G,,4 | 
[V:1] A2F4EDF2E2 | 
[V:2] A4A4D2E2 | 
[V:3] F6G2A4 | 
[V:4] D,8-D,2C,2 | 
[V:1] D2G4FEF2E2 | 
[V:2] F2B4AGF2c2 | 
[V:3] B8A4 | 
[V:4] B,,4G,,4D,2C,2 | 
[V:1] D2C2B,2B4A2 | 
[V:2] d2z2d2e2f4 | 
[V:3] B2A2B4c4 | 
[V:4] B,,2F,2G,4F,4 | 
[V:1] B4z2B4B2 | 
[V:2] z2d4d2d4- | 
[V:3] B8z4 | 
[V:4] G,6F,E,D,C,B,,A,, | 
[V:1] B2cBAGG4^F2 | 
[V:2] d2c3BB2A4 | 
[V:3] z12 | 
[V:4] G,,2A,,2F,,2G,,2D,4 | 
[V:1] G8z4 | 
[V:2] G6FEF3G | 
[V:3] B6B2B4 | 
[V:4] _E,8D,4 | 
[V:1] A6A2B2G2 | 
[V:2] A2c3de2f2e2 | 
[V:3] c8B2c2 | 
[V:4] C,2A,,3B,,C,2D,2E,2 | 
[V:1] A2G4A4F2 | 
[V:2] c2d2G2e2f2d2 | 
[V:3] A2B2c4A2B2 | 
[V:4] F,2B,,2_E,2C,2D,4 | 
[V:1] G2F4G4E2 | 
[V:2] c2d4G4c2 | 
[V:3] G2A2B4G2A2 | 
[V:4] E,2D,4E,4C,2 | 
[V:1] F2E4F4E2 | 
[V:2] B2c4B4c2 | 
[V:3] F2G2A4F2G2 | 
[V:4] D,2C,4D,4C,2 | 
[V:1] D2E2F2E2F4 | 
[V:2] d2c2F2c4=B2 | 
[V:3] B2A4G4F2 | 
[V:4] B,,2C,2D,2_E,2D,4 | 
[V:1] E2G4FED4 | 
[V:2] c3B/A/G3AB4 | 
[V:3] G8z4 | 
[V:4] C,8B,,4 | 
[V:1] C3DE2F4ED | 
[V:2] c4z2F3GAB | 
[V:3] A12- | 
[V:4] A,,3B,,C,2D,4C,B,, | 
[V:1] C2F2E2F4G2 | 
[V:2] c2d2e2d4G2 | 
[V:3] A8B4 | 
[V:4] A,,2D,2C,2D,4E,2 | 
[V:1] E2F3GA2D2E2 | 
[V:2] c2F2d4B2c2 | 
[V:3] A8G4 | 
[V:4] C,2D,3E,F,2G,2E,2 | 
[V:1] F2A3GF4E2 | 
[V:2] d4c2d2c4 | 
[V:3] F3GA2B2G4 | 
[V:4] D,2F,4B,,2C,4 | 
[V:1] F8F4 | 
[V:2] A2d3cB4A2 | 
[V:3] F12- | 
[V:4] D,8D,4 | 
[V:1] D12 ||  
[V:2] B12 ||  
[V:3] F12 ||  
[V:4] B,,12 ||  
[V:1]  [K:F] [K:clef=treble][M:2/1]z8 | 
[V:2]  [K:F] [K:clef=treble-8][M:2/1]f3ef2d2- | 
[V:3]  [K:F] [K:clef=treble-8][M:2/1]F8- | 
[V:4]  [K:F] [K:clef=bass][M:2/1]z8 | 
[V:1] z8 | 
[V:2] d2cBA3B | 
[V:3] F8- | 
[V:4] D,6C,B,, | 
[V:1] z8 | 
[V:2] c2d4cB | 
[V:3] F8- | 
[V:4] A,,2B,,4A,,G,, | 
[V:1] z8 | 
[V:2] d4c4 | 
[V:3] F8 | 
[V:4] B,,4A,,4 | 
[V:1] z8 | 
[V:2] B3cd2_e2- | 
[V:3] G8- | 
[V:4] G,,3A,,B,,2C,2- | 
[V:1] z8 | 
[V:2] efg2f2=e2 | 
[V:3] G4A4 | 
[V:4] C,D,_E,2D,2C,2 | 
[V:1] z8 | 
[V:2] d2g4fe | 
[V:3] B8- | 
[V:4] B,,4z2G,,2- | 
[V:1] z8 | 
[V:2] d3ef2g2 | 
[V:3] B8 | 
[V:4] G,,A,,B,,C,D,2E,2 | 
[V:1] z8 | 
[V:2] c2f4ed | 
[V:3] A8 | 
[V:4] F,2F,,3G,,A,,B,, | 
[V:1] z8 | 
[V:2] e2d2c2f2- | 
[V:3] G4A4 | 
[V:4] C,2B,,2C,2D,2- | 
[V:1] z8 | 
[V:2] f2ede4 | 
[V:3] F2G4FE | 
[V:4] D,2C,B,,C,4 | 
[V:1] z8 | 
[V:2] f6_e2- | 
[V:3] D3EFGA2- | 
[V:4] B,,3C,D,2C,2- | 
[V:1] z4A4 | 
[V:2] edB2c4 | 
[V:3] A2G4^F2 | 
[V:4] C,2B,,2A,,4 | 
[V:1] B8- | 
[V:2] B3cd2_e2- | 
[V:3] G8 | 
[V:4] G,,4G,,2G,,2 | 
[V:1] B8 | 
[V:2] e2dcd2_e2 | 
[V:3] z8 | 
[V:4] G,,4G,4 | 
[V:1] A4G4 | 
[V:2] c2d2B2c2 | 
[V:3] z8 | 
[V:4] F,4E,4 | 
[V:1] B4A2G2 | 
[V:2] d2e2f2g2- | 
[V:3] z8 | 
[V:4] G,4F,2E,2 | 
[V:1] A4G2B2- | 
[V:2] g2^f2g3=f | 
[V:3] z8 | 
[V:4] D,4E,3F, | 
[V:1] B2A2G2F2 | 
[V:2] d2f2e2d2- | 
[V:3] z8 | 
[V:4] G,2D,2E,2F,2 | 
[V:1] B4A2G2- | 
[V:2] d2cBc4 | 
[V:3] z8 | 
[V:4] B,,2D,2C,3D, | 
[V:1] G2F4E2 | 
[V:2] B2A2G4 | 
[V:3] z8 | 
[V:4] E,2F,2C,4 | 
[V:1] F4z4 | 
[V:2] z8 | 
[V:3] F6G2 | 
[V:4] z2D,4C,B,, | 
[V:1] F6G2 | 
[V:2] z8 | 
[V:3] A4B4 | 
[V:4] D,4B,,4 | 
[V:1] A4B4 | 
[V:2] z8 | 
[V:3] c2d4e2 | 
[V:4] F,4G,4 | 
[V:1] A2B4AG | 
[V:2] z8 | 
[V:3] f2d4cB | 
[V:4] F,2G,2G,,2G,2- | 
[V:1] c4B2A2- | 
[V:2] z8 | 
[V:3] A4G2c2- | 
[V:4] G,2F,2G,2F,2- | 
[V:1] A2G4^F2 | 
[V:2] z8 | 
[V:3] cBG2A4 | 
[V:4] F,2E,2D,4 | 
[V:1] G4z4 | 
[V:2] e4e2e2 | 
[V:3] G8 | 
[V:4] E,4C,4 | 
[V:1] z8 | 
[V:2] f6ed | 
[V:3] F4z4 | 
[V:4] D,E,F,G,A,2B,2- | 
[V:1] z8 | 
[V:2] g2f2e2d2- | 
[V:3] z8 | 
[V:4] B,2A,2G,2F,2 | 
[V:1] z8 | 
[V:2] d2c4=B2 | 
[V:3] z8 | 
[V:4] G,2F,E,D,4 | 
[V:1] A4A2A2 | 
[V:2] c4z4 | 
[V:3] A2c4BA | 
[V:4] C,4F,4 | 
[V:1] B6AG | 
[V:2] z8 | 
[V:3] G2B4c2 | 
[V:4] G,3F,D,2E,2 | 
[V:1] F2B4A2 | 
[V:2] z8 | 
[V:3] d4B2c2- | 
[V:4] D,4z4 | 
[V:1] G2F2E4 | 
[V:2] z8 | 
[V:3] cBd4^c2 | 
[V:4] z4A,,4 | 
[V:1] D3EFGA2- | 
[V:2] z8 | 
[V:3] d2f4ed | 
[V:4] B,,2D,4C,B,, | 
[V:1] A2G4^F2 | 
[V:2] z8 | 
[V:3] c2B2A4 | 
[V:4] A,,2B,,2C,2D,2 | 
[V:1] G4z4 | 
[V:2] d4c2d2- | 
[V:3] G4z4 | 
[V:4] G,,2G,2E,2F,2- | 
[V:1] z8 | 
[V:2] d2c2AGc2- | 
[V:3] z8 | 
[V:4] F,2E,D,C,3D, | 
[V:1] z8 | 
[V:2] c2B4A2 | 
[V:3] z8 | 
[V:4] _E,2D,2C,4 | 
[V:1] d6c2 | 
[V:2] B6c2 | 
[V:3] z8 | 
[V:4] B,,4G,,4 | 
[V:1] B4A2B2- | 
[V:2] d2e2f2d2 | 
[V:3] z8 | 
[V:4] G,4F,2G,2- | 
[V:1] B2A2G2B2 | 
[V:2] e2f2e2d2- | 
[V:3] z8 | 
[V:4] G,2F,2G,4 | 
[V:1] A4G2F2 | 
[V:2] d2c2B2A2 | 
[V:3] z8 | 
[V:4] F,4G,2D,2 | 
[V:1] B2A4G2 | 
[V:2] G2A2F2G2 | 
[V:3] z8 | 
[V:4] _E,2F,2D,2E,2 | 
[V:1] F2E2B2A2- | 
[V:2] A4z4 | 
[V:3] z4G2A2 | 
[V:4] D,2C,2B,,2C,2 | 
[V:1] A2G2F2E2 | 
[V:2] z8 | 
[V:3] F2G2A4 | 
[V:4] D,2_E,2D,2C,2 | 
[V:1] D3EF2G2 | 
[V:2] z8 | 
[V:3] B2d3cB2 | 
[V:4] B,,3C,D,2E,2 | 
[V:1] A2B2c2C2- | 
[V:2] z4c4- | 
[V:3] A2G2F3G | 
[V:4] F,2G,2A,4- | 
[V:1] CDEFGABc | 
[V:2] c2d2e4 | 
[V:3] ABc6 | 
[V:4] A,2G,F,E,4 | 
[V:1] A2B2A2G2- | 
[V:2] f2d2c2d2 | 
[V:3] d2B2c2G2 | 
[V:4] D,2G,,2A,,2B,,2 | 
[V:1] G2F2G2A2 | 
[V:2] c2F2c2A2 | 
[V:3] A4G2F2 | 
[V:4] C,2D,2E,2F,2 | 
[V:1] D8- | 
[V:2] B8- | 
[V:3] G4F2G2- | 
[V:4] B,,8- | 
[V:1] D8- | 
[V:2] B8- | 
[V:3] G2FEG4 | 
[V:4] B,,8- | 
[V:1] D8 ||  
[V:2] B8 ||  
[V:3] F8 ||  
[V:4] B,,8 ||  
[V:1]  [K:F] [K:clef=treble][M:2/1]A8- | 
[V:2]  [K:F] [K:clef=treble-8][M:2/1]d8- | 
[V:3]  [K:F] [K:clef=treble-8][M:2/1]F8- | 
[V:4]  [K:F] [K:clef=bass][M:2/1]D,8- | 
[V:1] A8 | 
[V:2] d8 | 
[V:3] F8 | 
[V:4] D,8 | 
[V:1] B8 | 
[V:2] d8 | 
[V:3] G8- | 
[V:4] G,,8- | 
[V:1] B6AG | 
[V:2] e8 | 
[V:3] G8 | 
[V:4] G,,8 | 
[V:1] A4F4- | 
[V:2] f6d2- | 
[V:3] F8- | 
[V:4] D,8- | 
[V:1] F2G2A4 | 
[V:2] d2cBA2F2 | 
[V:3] F8 | 
[V:4] D,8 | 
[V:1] G6FE | 
[V:2] G2B4c2 | 
[V:3] B8- | 
[V:4] G,,6A,,2 | 
[V:1] D2F4E2 | 
[V:2] d4z4 | 
[V:3] B4A4 | 
[V:4] B,,2D,4C,2 | 
[V:1] D2G2F2D2 | 
[V:2] d4d4 | 
[V:3] B4A2B2- | 
[V:4] B,,3C,D,2G,,2- | 
[V:1] d2c2B2c2- | 
[V:2] B2c2d3e | 
[V:3] B2A2B4 | 
[V:4] G,,2A,,2G,,2G,2 | 
[V:1] c2B4A2 | 
[V:2] f2e2f4 | 
[V:3] A2B2c4 | 
[V:4] F,2G,2F,4 | 
[V:1] B8 | 
[V:2] d8- | 
[V:3] B8- | 
[V:4] B,,6G,,2- | 
[V:1] z4B4- | 
[V:2] d8 | 
[V:3] B8 | 
[V:4] G,,A,,B,,C,D,4 | 
[V:1] B2A2G4 | 
[V:2] G4E4 | 
[V:3] z8 | 
[V:4] E,8 | 
[V:1] F6ED | 
[V:2] F4z2F2 | 
[V:3] B8 | 
[V:4] D,8 | 
[V:1] E3FG4 | 
[V:2] G8 | 
[V:3] c6B2 | 
[V:4] C,2D,2E,4 | 
[V:1] A4B2G2- | 
[V:2] c4B4- | 
[V:3] A4G4 | 
[V:4] F,4G,2_E,2- | 
[V:1] G2FEGFED | 
[V:2] B2c2d4 | 
[V:3] B8 | 
[V:4] E,2D,C,B,,4 | 
[V:1] C2F2D2G2- | 
[V:2] _e2c2d4 | 
[V:3] A4G4 | 
[V:4] C,2A,,2B,,2G,,2 | 
[V:1] G2^FEF4 | 
[V:2] z2d3cA2 | 
[V:3] A8 | 
[V:4] D,4D,4 | 
[V:1] G8 | 
[V:2] B2B4AG | 
[V:3] G4z4 | 
[V:4] z2G,,3A,,B,,C, | 
[V:1] z8 | 
[V:2] F2f4e2- | 
[V:3] A6B2- | 
[V:4] D,3E,F,2G,2- | 
[V:1] z8 | 
[V:2] e2dcd2c2- | 
[V:3] B2AGA2G2- | 
[V:4] G,2F,E,F,2_E,2- | 
[V:1] z4E4 | 
[V:2] c2B4A2 | 
[V:3] G2F4E2 | 
[V:4] E,D,B,,2C,4 | 
[V:1] D2F4ED | 
[V:2] B3cd4 | 
[V:3] F8 | 
[V:4] B,,8 | 
[V:1] C2c4BA | 
[V:2] _e4_e2c2- | 
[V:3] z4A4- | 
[V:4] C,8- | 
[V:1] G4G4 | 
[V:2] c2BAG4 | 
[V:3] A2B2c4 | 
[V:4] C,4_E,4 | 
[V:1] F3GA2B2 | 
[V:2] A2B2A2G2 | 
[V:3] d8- | 
[V:4] D,3E,F,2G,2 | 
[V:1] A2B4A2- | 
[V:2] A2G4A2 | 
[V:3] d8 | 
[V:4] F,2G,4F,2- | 
[V:1] A2GFE4 | 
[V:2] F4G2A2 | 
[V:3] c8 | 
[V:4] F,2E,D,C,4 | 
[V:1] DEFGA2B2 | 
[V:2] B2f4d2 | 
[V:3] d8 | 
[V:4] B,,C,D,E,F,2G,2 | 
[V:1] G2A4B2 | 
[V:2] e2c2f2d2 | 
[V:3] c4d4 | 
[V:4] E,2F,4G,2 | 
[V:1] c2B4AG | 
[V:2] e2d2f4 | 
[V:3] c2d3cB2 | 
[V:4] C,2G,2D,4 | 
[V:1] F2B4A2 | 
[V:2] f4f4 | 
[V:3] d4c4 | 
[V:4] z2B,,2F,4 | 
[V:1] B8- | 
[V:2] d6e2 | 
[V:3] B8- | 
[V:4] G,6F,E, | 
[V:1] B8- | 
[V:2] f2g4fe | 
[V:3] B8- | 
[V:4] D,2_E,4D,C, | 
[V:1] B8 ||  
[V:2] d8 & f8 ||  
[V:3] B8 ||  
[V:4] B,,8 ||  
[V:1]  [K:F] [K:clef=treble][M:2/1]z8 | 
[V:2]  [K:F] [K:clef=treble-8][M:2/1]z8 | 
[V:3]  [K:F] [K:clef=treble-8][M:2/1]F6G2 | 
[V:4]  [K:F] [K:clef=bass][M:2/1]z8 | 
[V:1] F8- | 
[V:2] z8 | 
[V:3] A2B4AG | 
[V:4] z8 | 
[V:1] F4G4 | 
[V:2] z8 | 
[V:3] A2B3Ac2- | 
[V:4] z8 | 
[V:1] A8 | 
[V:2] z8 | 
[V:3] cBAGF4 | 
[V:4] z4D,4 | 
[V:1] B8 | 
[V:2] GABcd2e2 | 
[V:3] z8 | 
[V:4] G,,2G,4E,2 | 
[V:1] A4G4- | 
[V:2] c2d2B2c2- | 
[V:3] z8 | 
[V:4] F,2D,2_E,4 | 
[V:1] G4F4 | 
[V:2] cBAGd2B2- | 
[V:3] z8 | 
[V:4] _E,4D,4 | 
[V:1] G3FG2A2- | 
[V:2] BAc3BAG | 
[V:3] z8 | 
[V:4] _E,4C,2F,2- | 
[V:1] A2G4^F2 | 
[V:2] F2G2A4 | 
[V:3] c4d4- | 
[V:4] F,2_E,2D,4 | 
[V:1] G4z4 | 
[V:2] G8 | 
[V:3] d2B4AG | 
[V:4] G,,6A,,2 | 
[V:1] z8 | 
[V:2] z8 | 
[V:3] F2G4A2- | 
[V:4] B,,4C,4 | 
[V:1] z8 | 
[V:2] z8 | 
[V:3] A2B2c2B2- | 
[V:4] D,4C,2D,2 | 
[V:1] z8 | 
[V:2] z4c4 | 
[V:3] BAG4^F2 | 
[V:4] G,,4A,,4 | 
[V:1] z8 | 
[V:2] B3cd2_e2- | 
[V:3] G8 | 
[V:4] G,,4z2G,2- | 
[V:1] z8 | 
[V:2] e2dcB2_e2- | 
[V:3] z8 | 
[V:4] G,2F,E,D,2C,2 | 
[V:1] z8 | 
[V:2] edd4c2 | 
[V:3] z8 | 
[V:4] D,4_E,4 | 
[V:1] A8- | 
[V:2] d2f3ga2- | 
[V:3] z2d4cB | 
[V:4] z4z2D,2- | 
[V:1] A8 | 
[V:2] agfef4 | 
[V:3] A8 | 
[V:4] D,2C,B,,A,,2D,2 | 
[V:1] B8 | 
[V:2] g4z2g2 | 
[V:3] G8 | 
[V:4] G,,2G,4F,E, | 
[V:1] A4G4 | 
[V:2] c2f2d4 | 
[V:3] A4B4 | 
[V:4] F,4z2G,2- | 
[V:1] B4A2G2- | 
[V:2] B3cd2_e2- | 
[V:3] G4A2B2- | 
[V:4] G,2F,E,F,2_E,2- | 
[V:1] G2F4E2 | 
[V:2] edB2c4 | 
[V:3] BAF2G4 | 
[V:4] E,2D,2C,4 | 
[V:1] F8 | 
[V:2] A3Bc4 | 
[V:3] z2F3GA2 | 
[V:4] D,2C,B,,A,,4 | 
[V:1] z4F4- | 
[V:2] d6cB | 
[V:3] B6AG | 
[V:4] G,,4D,4- | 
[V:1] F2G2A4 | 
[V:2] d4c4 | 
[V:3] B4A4 | 
[V:4] D,2E,2F,4 | 
[V:1] B6AG | 
[V:2] BGg4fe | 
[V:3] G4z4 | 
[V:4] G,4z2G,,2- | 
[V:1] B4A4 | 
[V:2] d2g4f2 | 
[V:3] z8 | 
[V:4] G,,A,,B,,G,,D,4 | 
[V:1] G4z2A2- | 
[V:2] g4c2f2- | 
[V:3] z2c3BAG | 
[V:4] B,,2C,2A,,4 | 
[V:1] AGA2B4 | 
[V:2] fedcB2G2 | 
[V:3] F4G2d2- | 
[V:4] A,,4G,,4 | 
[V:1] A4F2G2- | 
[V:2] A4B4 | 
[V:3] d2c2d2B2- | 
[V:4] F,4B,,4 | 
[V:1] G2FED2C2- | 
[V:2] G6A2- | 
[V:3] B2AGF4- | 
[V:4] _E,4z2F,2- | 
[V:1] C2F4E2 | 
[V:2] A2B2c4 | 
[V:3] F4G4 | 
[V:4] F,E,D,2C,4 | 
[V:1] [M:3/1]F8z4 | 
[V:2] [M:3/1]A8G4 | 
[V:3] [M:3/1]F8z4 | 
[V:4] [M:3/1]D,6C,2B,,4 | 
[V:1] z12 | 
[V:2] A8B4 | 
[V:3] F8G4 | 
[V:4] A,,4D,4G,,4 | 
[V:1] F8G4 | 
[V:2] A4d4c4 | 
[V:3] F4A4G4 | 
[V:4] D,8E,4 | 
[V:1] F6G2A4 | 
[V:2] d4f8 | 
[V:3] A4d8 | 
[V:4] D,6E,2F,4 | 
[V:1] B8A4 | 
[V:2] e4f8 | 
[V:3] B4c8 | 
[V:4] G,4F,8 | 
[V:1] B8z4 | 
[V:2] d12 | 
[V:3] B12 | 
[V:4] G,12- | 
[V:1] B8B4 | 
[V:2] B8B4 | 
[V:3] d12 | 
[V:4] G,4G,8 | 
[V:1] c6B2A2G2 | 
[V:2] _e8_e4 | 
[V:3] c8c4 | 
[V:4] C,8C,4 | 
[V:1] B4A6G2 | 
[V:2] d4f6e2 | 
[V:3] B4c8 | 
[V:4] G,4F,8 | 
[V:1] G8^F4 | 
[V:2] d8d4 | 
[V:3] B4A8 | 
[V:4] G,4D,8 | 
[V:1] [M:2/1]G4z4 | 
[V:2] [M:2/1]B4c4 | 
[V:3] [M:2/1]G8 | 
[V:4] [M:2/1]E,4E,4 | 
[V:1] A6GF | 
[V:2] d2A3Bc2 | 
[V:3] z4c4 | 
[V:4] D,4C,4 | 
[V:1] G4F4 | 
[V:2] G2d4d2 | 
[V:3] B4A4 | 
[V:4] z2G,2D,4 | 
[V:1] B6AG | 
[V:2] B4G2B2 | 
[V:3] G4d4 | 
[V:4] G,,2G,4F,E, | 
[V:1] A4G4 | 
[V:2] A4d2_e2 | 
[V:3] c4B4 | 
[V:4] F,4G,2_E,2 | 
[V:1] c6BA | 
[V:2] c2A3Bc2 | 
[V:3] A4_e4 | 
[V:4] F,2_E,D,C,4 | 
[V:1] B4A4 | 
[V:2] d2g2e2f2 | 
[V:3] d4c4 | 
[V:4] z2G,2A,2F,2 | 
[V:1] d6cB | 
[V:2] d4d4 | 
[V:3] B4f4 | 
[V:4] G,2F,E,D,4 | 
[V:1] c4B4 | 
[V:2] e2c2d2B2 | 
[V:3] e4d4 | 
[V:4] C,2A,,2B,,4 | 
[V:1] G2A4GF | 
[V:2] d2c2z2A2- | 
[V:3] B2c2A2d2- | 
[V:4] z2A,,2D,4 | 
[V:1] E4D2d2- | 
[V:2] A2G2F2B2- | 
[V:3] d2^c2d4 | 
[V:4] A,,4B,,2G,,2- | 
[V:1] d2cBA4 | 
[V:2] BGg4f2 | 
[V:3] z2G2ABcd | 
[V:4] G,,A,,B,,G,,D,4 | 
[V:1] z2G2ABcd | 
[V:2] d2g4f2 | 
[V:3] B4A4 | 
[V:4] G,,4D,4 | 
[V:1] B2A4G2- | 
[V:2] g2d2B2c2 | 
[V:3] G2F2G4 | 
[V:4] G,,2D,2_E,4 | 
[V:1] G2^F2G4 |]  
[V:2] d4d4 |]  
[V:3] A4G4 |]  
[V:4] D,4G,,4 |]  



